images/client-logos/centurylink.svg

<svg fill="none" height="80" viewBox="0 0 382 80" width="382" xmlns="http://www.w3.org/2000/svg"><g fill="#e3e8f0"><g clip-rule="evenodd" fill-rule="evenodd"><path d="m7.15637 62.7996c2.64302 3.7427 5.90613 7.0064 9.64853 9.65l13.1794-22.8309z"/><path d="m16.8049 7.15485c-3.7455 2.6399-7.00921 5.90415-9.64853 9.64995l22.82793 13.1749z"/><path d="m56.579 3.55755c-4.1558-1.93098-8.6158-3.124517-13.1806-3.5272766v26.3582266z"/><path d="m23.0254 76.045c4.1579 1.9302 8.6188 3.1253 13.1848 3.5321v-26.3642z"/><path d="m72.4528 16.8048c-2.6394-3.7459-5.9032-7.01014-9.6488-9.64995l-13.1791 22.82485z"/><path d="m62.8024 72.4497c3.7431-2.6423 7.006-5.9062 9.6473-9.65l-22.8264-13.1809z"/><path d="m79.5758 36.206c-.4088-4.5637-1.6006-9.0229-3.5231-13.1821l-22.8366 13.1821z"/><path d="m.0302734 43.3927c.4046766 4.5632 1.5971766 9.0217 3.5245466 13.1776l22.83818-13.1776z"/><path d="m3.55482 23.0238c-1.92643 4.1578-3.118872 8.6177-3.5245466 13.1821h26.3627266z"/><path d="m53.2161 43.3927 22.8366 13.1776c1.9282-4.1556 3.1202-8.6143 3.5231-13.1776z"/><path d="m36.2102.0302734c-4.5664.4011546-9.028 1.5947566-13.1848 3.5272766l13.1848 22.83095z"/><path d="m43.3983 79.5773c4.5646-.4071 9.0242-1.6021 13.1806-3.5322l-13.1806-22.8321z"/><path d="m125.387 30.919c-.738-3.6331-4.074-6.142-7.77-5.843-9.043 0-10.718 8.2788-10.718 14.7312 0 7.567 2.293 14.7136 10.264 14.7136 3.784.4069 7.265-2.1089 8.066-5.8296h5.329c-.504 6.1448-6.701 10.1933-13.852 10.1933-10.818 0-15.125-8.8249-15.125-19.0773 0-8.9857 3.949-19.4482 16.233-19.093 7.055.2039 12.342 3.6576 12.895 10.2048z"/></g><path d="m139.486 46.3c-.352 4.4715 1.478 9.0867 6.395 9.0867 1.529.2417 3.087-.1884 4.275-1.1799 1.188-.9914 1.89-2.4476 1.926-3.9947h5.074c-.765 5.787-5.226 8.6724-11.321 8.6724-8.172 0-11.419-5.7782-11.419-13.2903 0-7.4618 3.751-13.7088 11.82-13.7088 7.619.1479 11.218 4.9731 11.218 12.0222v2.3924zm12.898-3.3394c.098-4.2749-1.834-7.5758-6.503-7.5758-1.879.0882-3.637.9552-4.85 2.3928-1.214 1.4375-1.773 3.3157-1.545 5.183z"/><path clip-rule="evenodd" d="m167.123 36.4012h.099c1.565-2.7896 4.515-4.5165 7.713-4.5158 1.78 0 9.655.46 9.655 8.6322v17.6033h-4.828v-16.0364c0-4.2139-1.771-6.4954-5.843-6.4954-1.742-.0126-3.419.6626-4.665 1.8791-.709.7057-2.032 1.8318-2.032 6.8048v13.8479h-4.825v-25.4749h4.726z" fill-rule="evenodd"/><path clip-rule="evenodd" d="m192.212 32.6369v-5.4182l4.825-1.5285v6.9467h5.889v3.5009h-5.889v16.3588c0 1.82 1.422 2.6843 3.15 2.6843.852-.0015 1.7-.1018 2.529-.2988v3.7033c-1.108.0564-2.184.2991-3.288.2991-1.088.0182-2.176-.0631-3.249-.2427-1.125-.1858-2.139-.7854-2.844-1.6809-.864-1.2179-1.123-1.3155-1.123-4.717v-16.1061h-4.359v-3.5009z" fill-rule="evenodd"/><path clip-rule="evenodd" d="m224.123 32.6461h4.818v25.4748h-4.716v-3.7464h-.102c-1.874 2.98-5.218 4.7072-8.733 4.51-2.372.0208-4.641-.9687-6.24-2.7212s-2.378-4.1025-2.14-6.463v-17.0542h4.828v15.073c0 4.4227 1.012 7.6676 5.634 7.6676 2.464.0518 4.714-1.3946 5.689-3.6579.641-1.9304.966-3.9514.962-5.9852z" fill-rule="evenodd"/><path clip-rule="evenodd" d="m240.207 58.1208h-4.821v-25.4748h4.821v4.9181h.106c.859-3.3469 4.016-5.5795 7.458-5.2748.608 0 1.123.056 1.673.056v4.5664c-.672-.2049-1.375-.2891-2.077-.2485-6.096.1952-7.16 3.4446-7.16 8.8303z" fill-rule="evenodd"/><path clip-rule="evenodd" d="m263.712 67.8788h-4.936l3.86-9.8515-10.6-25.3819h5.367l7.976 20.1031 8.133-20.1031h5.17z" fill-rule="evenodd"/><path clip-rule="evenodd" d="m282.297 58.1212v-36.6485h7.87v30.5667h15.887v6.0818z" fill-rule="evenodd"/><path d="m310.567 21.4733h8.123v6.5518h-8.123zm.254 11.1728h7.614v25.4748h-7.614z"/><path clip-rule="evenodd" d="m333.297 35.589.101.1552c1.725-2.5959 4.708-4.0685 7.818-3.8588 2.536 0 7.462 1.8703 8.372 5.5827.332 1.3296.506 2.694.516 4.0646v16.5882h-7.619v-15.3204c-.045-2.746-.815-5.8342-4.567-5.8342-2.39 0-4.467 2.1309-4.571 5.8342v15.3204h-7.611v-25.4749h7.561z" fill-rule="evenodd"/><path clip-rule="evenodd" d="m365.085 42.9606.097.0909 7.512-10.7061h8.476l-8.782 11.1637 9.339 14.6121h-8.879l-7.666-13.9515-.097.103v13.8485h-7.612v-36.6485h7.612z" fill-rule="evenodd"/></g></svg>

<svg width="382" height="80" viewBox="0 0 382 80" fill="none" xmlns="http://www.w3.org/2000/svg">
<path fill-rule="evenodd" clip-rule="evenodd" d="M7.15637 62.7996C9.79939 66.5423 13.0625 69.806 16.8049 72.4496L29.9843 49.6187L7.15637 62.7996Z" fill="#E3E8F0"/>
<path fill-rule="evenodd" clip-rule="evenodd" d="M16.8049 7.15485C13.0594 9.79475 9.79569 13.059 7.15637 16.8048L29.9843 29.9797L16.8049 7.15485Z" fill="#E3E8F0"/>
<path fill-rule="evenodd" clip-rule="evenodd" d="M56.579 3.55755C52.4232 1.62657 47.9632 0.433033 43.3984 0.0302734V26.3885L56.579 3.55755Z" fill="#E3E8F0"/>
<path fill-rule="evenodd" clip-rule="evenodd" d="M23.0254 76.045C27.1833 77.9752 31.6442 79.1703 36.2102 79.5771V53.2129L23.0254 76.045Z" fill="#E3E8F0"/>
<path fill-rule="evenodd" clip-rule="evenodd" d="M72.4528 16.8048C69.8134 13.0589 66.5496 9.79466 62.804 7.15485L49.6249 29.9797L72.4528 16.8048Z" fill="#E3E8F0"/>
<path fill-rule="evenodd" clip-rule="evenodd" d="M62.8024 72.4497C66.5455 69.8074 69.8084 66.5435 72.4497 62.7997L49.6233 49.6188L62.8024 72.4497Z" fill="#E3E8F0"/>
<path fill-rule="evenodd" clip-rule="evenodd" d="M79.5758 36.206C79.167 31.6423 77.9752 27.1831 76.0527 23.0239L53.2161 36.206H79.5758Z" fill="#E3E8F0"/>
<path fill-rule="evenodd" clip-rule="evenodd" d="M0.0302734 43.3927C0.43495 47.9559 1.62745 52.4144 3.55482 56.5703L26.393 43.3927H0.0302734Z" fill="#E3E8F0"/>
<path fill-rule="evenodd" clip-rule="evenodd" d="M3.55482 23.0238C1.62839 27.1816 0.435948 31.6415 0.0302734 36.2059H26.393L3.55482 23.0238Z" fill="#E3E8F0"/>
<path fill-rule="evenodd" clip-rule="evenodd" d="M53.2161 43.3927L76.0527 56.5703C77.9809 52.4147 79.1729 47.956 79.5758 43.3927H53.2161Z" fill="#E3E8F0"/>
<path fill-rule="evenodd" clip-rule="evenodd" d="M36.2102 0.0302734C31.6438 0.431428 27.1822 1.62503 23.0254 3.55755L36.2102 26.3885V0.0302734Z" fill="#E3E8F0"/>
<path fill-rule="evenodd" clip-rule="evenodd" d="M43.3983 79.5773C47.9629 79.1702 52.4225 77.9752 56.5789 76.0451L43.3983 53.213V79.5773Z" fill="#E3E8F0"/>
<path fill-rule="evenodd" clip-rule="evenodd" d="M125.387 30.919C124.649 27.2859 121.313 24.777 117.617 25.076C108.574 25.076 106.899 33.3548 106.899 39.8072C106.899 47.3742 109.192 54.5208 117.163 54.5208C120.947 54.9277 124.428 52.4119 125.229 48.6912H130.558C130.054 54.836 123.857 58.8845 116.706 58.8845C105.888 58.8845 101.581 50.0596 101.581 39.8072C101.581 30.8215 105.53 20.359 117.814 20.7142C124.869 20.9181 130.156 24.3718 130.709 30.919H125.387Z" fill="#E3E8F0"/>
<path d="M139.486 46.3C139.134 50.7715 140.964 55.3867 145.881 55.3867C147.41 55.6284 148.968 55.1983 150.156 54.2068C151.344 53.2154 152.046 51.7592 152.082 50.2121H157.156C156.391 55.9991 151.93 58.8845 145.835 58.8845C137.663 58.8845 134.416 53.1063 134.416 45.5942C134.416 38.1324 138.167 31.8854 146.236 31.8854C153.855 32.0333 157.454 36.8585 157.454 43.9076V46.3H139.486ZM152.384 42.9606C152.482 38.6857 150.55 35.3848 145.881 35.3848C144.002 35.473 142.244 36.34 141.031 37.7776C139.817 39.2151 139.258 41.0933 139.486 42.9606H152.384Z" fill="#E3E8F0"/>
<path fill-rule="evenodd" clip-rule="evenodd" d="M167.123 36.4012H167.222C168.787 33.6116 171.737 31.8847 174.935 31.8854C176.715 31.8854 184.59 32.3454 184.59 40.5176V58.1209H179.762V42.0845C179.762 37.8706 177.991 35.5891 173.919 35.5891C172.177 35.5765 170.5 36.2517 169.254 37.4682C168.545 38.1739 167.222 39.3 167.222 44.273V58.1209H162.397V32.646H167.123V36.4012" fill="#E3E8F0"/>
<path fill-rule="evenodd" clip-rule="evenodd" d="M192.212 32.6369V27.2187L197.037 25.6902V32.6369H202.926V36.1378H197.037V52.4966C197.037 54.3166 198.459 55.1809 200.187 55.1809C201.039 55.1794 201.887 55.0791 202.716 54.8821V58.5854C201.608 58.6418 200.532 58.8845 199.428 58.8845C198.34 58.9027 197.252 58.8214 196.179 58.6418C195.054 58.456 194.04 57.8564 193.335 56.9609C192.471 55.743 192.212 55.6454 192.212 52.2439V36.1378H187.853V32.6369H192.212Z" fill="#E3E8F0"/>
<path fill-rule="evenodd" clip-rule="evenodd" d="M224.123 32.6461H228.941V58.1209H224.225V54.3745H224.123C222.249 57.3545 218.905 59.0817 215.39 58.8845C213.018 58.9053 210.749 57.9158 209.15 56.1633C207.551 54.4108 206.772 52.0608 207.01 49.7003V32.6461H211.838V47.7191C211.838 52.1418 212.85 55.3867 217.472 55.3867C219.936 55.4385 222.186 53.9921 223.161 51.7288C223.802 49.7984 224.127 47.7774 224.123 45.7436V32.6461Z" fill="#E3E8F0"/>
<path fill-rule="evenodd" clip-rule="evenodd" d="M240.207 58.1208H235.386V32.646H240.207V37.5641H240.313C241.172 34.2172 244.329 31.9846 247.771 32.2893C248.379 32.2893 248.894 32.3453 249.444 32.3453V36.9117C248.772 36.7068 248.069 36.6226 247.367 36.6632C241.271 36.8584 240.207 40.1078 240.207 45.4935V58.1208" fill="#E3E8F0"/>
<path fill-rule="evenodd" clip-rule="evenodd" d="M263.712 67.8788H258.776L262.636 58.0273L252.036 32.6454H257.403L265.379 52.7485L273.512 32.6454H278.682L263.712 67.8788Z" fill="#E3E8F0"/>
<path fill-rule="evenodd" clip-rule="evenodd" d="M282.297 58.1212V21.4727H290.167V52.0394H306.054V58.1212H282.297Z" fill="#E3E8F0"/>
<path d="M310.567 21.4733H318.69V28.0251H310.567V21.4733ZM310.821 32.6461H318.435V58.1209H310.821V32.6461Z" fill="#E3E8F0"/>
<path fill-rule="evenodd" clip-rule="evenodd" d="M333.297 35.589L333.398 35.7442C335.123 33.1483 338.106 31.6757 341.216 31.8854C343.752 31.8854 348.678 33.7557 349.588 37.4681C349.92 38.7977 350.094 40.1621 350.104 41.5327V58.1209H342.485V42.8005C342.44 40.0545 341.67 36.9663 337.918 36.9663C335.528 36.9663 333.451 39.0972 333.347 42.8005V58.1209H325.736V32.646H333.297V35.589Z" fill="#E3E8F0"/>
<path fill-rule="evenodd" clip-rule="evenodd" d="M365.085 42.9606L365.182 43.0515L372.694 32.3454H381.17L372.388 43.5091L381.727 58.1212H372.848L365.182 44.1697L365.085 44.2727V58.1212H357.473V21.4727H365.085V42.9606Z" fill="#E3E8F0"/>
</svg>
